chains/zksyncsepolia/logo.svg

<svg xmlns="http://www.w3.org/2000/svg" fill="none" viewBox="0 0 288 288">
  <circle cx="144" cy="144" r="144" fill="#F2F2F2"/>
  <path fill="#000" d="m96 80-64 64 64 64v-48l64-48H96V80ZM256 144l-64-64v48l-64 48h64v32l64-64Z"/>
</svg>

<svg width="288" height="288" viewBox="0 0 288 288" fill="none" xmlns="http://www.w3.org/2000/svg">
<circle cx="144" cy="144" r="144" fill="#F2F2F2"/>
<path d="M96 80L32 144L96 208V160L160 112H96V80Z" fill="black"/>
<path d="M256 144L192 80V128L128 176H192V208L256 144Z" fill="black"/>
</svg>
